images/privacy_shield_icon.svg

<svg fill="none" height="242" viewBox="0 0 241 242" width="241" xmlns="http://www.w3.org/2000/svg"><path d="m40.1666 30.127v-6c-3.3137 0-6 2.6862-6 6zm160.6664 0h6c0-3.3138-2.686-6-6-6zm-80.333 180.75-1.455 5.821 1.455.364 1.455-.364zm-80.3334-174.75h160.6664v-12h-160.6664zm80.3334 174.75c1.455-5.821 1.458-5.82 1.46-5.82.001 0 .003.001.004.001.001.001.002.001.001.001-.002-.001-.008-.003-.019-.005-.022-.006-.063-.017-.123-.033-.118-.031-.309-.084-.567-.158-.518-.149-1.306-.386-2.326-.723-2.041-.674-5.002-1.746-8.577-3.31-7.163-3.134-16.7095-8.208-26.2362-15.948-18.9101-15.365-37.9502-41.358-37.9502-84.463h-12c0 47.27 21.1266 76.505 42.3831 93.776 10.5567 8.577 21.0936 14.173 28.9933 17.629 3.956 1.731 7.271 2.934 9.623 3.711 1.177.388 2.115.671 2.774.861.33.095.59.166.776.216.092.025.167.044.222.059.027.007.05.012.068.017.009.002.017.004.023.006.003.001.007.002.009.002.003.001.007.002 1.462-5.819zm-74.3334-110.458v-70.292h-12v70.292zm148.6664-70.292v70.292h12v-70.292zm0 70.292c0 43.105-19.04 69.098-37.95 84.463-9.527 7.74-19.073 12.814-26.236 15.948-3.575 1.564-6.536 2.636-8.577 3.31-1.02.337-1.808.574-2.326.723-.258.074-.449.127-.568.158-.059.016-.1.027-.122.033-.011.002-.017.004-.019.005-.001 0 0 0 .001-.001.001 0 .003-.001.004-.001.002 0 .005-.001 1.46 5.82s1.458 5.82 1.462 5.819c.002 0 .006-.001.009-.002.006-.002.014-.004.023-.006.018-.005.041-.01.068-.017.055-.015.13-.034.222-.059.186-.05.446-.121.776-.216.659-.19 1.597-.473 2.774-.861 2.352-.777 5.667-1.98 9.623-3.711 7.9-3.456 18.437-9.052 28.993-17.629 21.257-17.271 42.383-46.506 42.383-93.776z" fill="#b8ab9c"/><circle cx="120.5" cy="100.419" r="20.0833" stroke="#b8ab9c" stroke-linejoin="round" stroke-width="12"/><path clip-rule="evenodd" d="m114.5 168.225 12-12v-35.723h-12z" fill="#b8ab9c" fill-rule="evenodd"/></svg>

<svg width="241" height="242" viewBox="0 0 241 242" fill="none" xmlns="http://www.w3.org/2000/svg">
<path d="M40.1666 30.127V24.127C36.8529 24.127 34.1666 26.8132 34.1666 30.127H40.1666ZM200.833 30.127H206.833C206.833 26.8132 204.147 24.127 200.833 24.127V30.127ZM120.5 210.877L119.045 216.698L120.5 217.062L121.955 216.698L120.5 210.877ZM40.1666 36.127H200.833V24.127H40.1666V36.127ZM120.5 210.877C121.955 205.056 121.958 205.057 121.96 205.057C121.961 205.057 121.963 205.058 121.964 205.058C121.965 205.059 121.966 205.059 121.965 205.059C121.963 205.058 121.957 205.056 121.946 205.054C121.924 205.048 121.883 205.037 121.823 205.021C121.705 204.99 121.514 204.937 121.256 204.863C120.738 204.714 119.95 204.477 118.93 204.14C116.889 203.466 113.928 202.394 110.353 200.83C103.19 197.696 93.6435 192.622 84.1168 184.882C65.2067 169.517 46.1666 143.524 46.1666 100.419H34.1666C34.1666 147.689 55.2932 176.924 76.5497 194.195C87.1064 202.772 97.6433 208.368 105.543 211.824C109.499 213.555 112.814 214.758 115.166 215.535C116.343 215.923 117.281 216.206 117.94 216.396C118.27 216.491 118.53 216.562 118.716 216.612C118.808 216.637 118.883 216.656 118.938 216.671C118.965 216.678 118.988 216.683 119.006 216.688C119.015 216.69 119.023 216.692 119.029 216.694C119.032 216.695 119.036 216.696 119.038 216.696C119.041 216.697 119.045 216.698 120.5 210.877ZM46.1666 100.419V30.127H34.1666V100.419H46.1666ZM194.833 30.127V100.419H206.833V30.127H194.833ZM194.833 100.419C194.833 143.524 175.793 169.517 156.883 184.882C147.356 192.622 137.81 197.696 130.647 200.83C127.072 202.394 124.111 203.466 122.07 204.14C121.05 204.477 120.262 204.714 119.744 204.863C119.486 204.937 119.295 204.99 119.176 205.021C119.117 205.037 119.076 205.048 119.054 205.054C119.043 205.056 119.037 205.058 119.035 205.059C119.034 205.059 119.035 205.059 119.036 205.058C119.037 205.058 119.039 205.057 119.04 205.057C119.042 205.057 119.045 205.056 120.5 210.877C121.955 216.698 121.958 216.697 121.962 216.696C121.964 216.696 121.968 216.695 121.971 216.694C121.977 216.692 121.985 216.69 121.994 216.688C122.012 216.683 122.035 216.678 122.062 216.671C122.117 216.656 122.192 216.637 122.284 216.612C122.47 216.562 122.73 216.491 123.06 216.396C123.719 216.206 124.657 215.923 125.834 215.535C128.186 214.758 131.501 213.555 135.457 211.824C143.357 208.368 153.894 202.772 164.45 194.195C185.707 176.924 206.833 147.689 206.833 100.419H194.833Z" fill="#B8AB9C"/>
<circle cx="120.5" cy="100.419" r="20.0833" stroke="#B8AB9C" stroke-width="12" stroke-linejoin="round"/>
<path fill-rule="evenodd" clip-rule="evenodd" d="M114.5 168.225L126.5 156.225V120.502H114.5V168.225Z" fill="#B8AB9C"/>
</svg>
